neru-dark-classic/22x22/panel/weather-few-clouds.svg

<svg xmlns="http://www.w3.org/2000/svg" width="22" height="22" version="1.1">
 <defs>
  <style id="current-color-scheme" type="text/css">
   .ColorScheme-Text { color:#d3dae3; } .ColorScheme-Highlight { color:#5294e2; }
  </style>
 </defs>
 <g transform="translate(-153.00001,-681.28994)">
  <path style="fill:currentColor" class="ColorScheme-Text" d="M 10 3.0039062 L 9.5 4.0351562 C 9.66191 4.0218563 9.8348 4.0039062 10 4.0039062 L 10.5 4.0039062 L 10 3.0039062 z M 10 5.0039062 C 7.23858 5.0039062 5 7.2424963 5 10.003906 C 5 12.257906 6.51261 14.129676 8.5625 14.753906 C 9.03135 14.076476 9.74225 13.548576 10.53125 13.316406 C 11.15098 11.994376 12.50599 10.978106 14 11.003906 C 14.30449 10.998906 14.58708 11.059906 14.875 11.128906 C 14.9595 10.764556 15 10.393956 15 10.003906 C 15 7.2424963 12.76142 5.0039062 10 5.0039062 z M 5.0625 5.0664062 L 5.40625 6.1289062 C 5.6253 5.8696862 5.86578 5.6292063 6.125 5.4101562 L 5.0625 5.0664062 z M 14.9375 5.0664062 L 13.84375 5.4414062 L 13.78125 5.4414062 C 13.92042 5.5523563 14.05623 5.6665162 14.1875 5.7851562 C 14.31877 5.9037963 14.44549 6.0269063 14.5625 6.1601562 L 14.9375 5.0664062 z M 4 9.5039062 L 3 10.003906 L 4.03125 10.503906 C 4.01645 10.334596 4 10.177506 4 10.003906 C 4 9.9764062 3.998 9.9203062 4 9.8476562 C 4.006 9.7318263 4.02235 9.6154162 4.03125 9.5039062 L 4 9.5039062 z M 15.96875 9.5039062 C 15.98355 9.6732162 16 9.8303063 16 10.003906 C 16 10.031406 16.002 10.087506 16 10.160156 C 15.994 10.275986 15.97765 10.392396 15.96875 10.503906 L 16 10.503906 L 17 10.003906 L 15.96875 9.5039062 z M 14 12.003906 C 12.68832 12.003906 11.59518 12.862336 11.1875 14.035156 C 9.95667 14.191126 9 15.230726 9 16.503906 C 9 17.884616 10.11929 19.003906 11.5 19.003906 L 17 19.003906 C 18.10457 19.003906 19 18.108476 19 17.003906 C 19 15.899336 18.10457 15.003906 17 15.003906 C 17 13.347056 15.65685 12.003906 14 12.003906 z M 5.4375 13.847656 L 5.0625 14.941406 L 6.15625 14.566406 L 6.21875 14.566406 C 6.07958 14.455456 5.94377 14.341296 5.8125 14.222656 C 5.68123 14.104016 5.55451 13.980906 5.4375 13.847656 z" transform="translate(153.00001,681.28994)"/>
 </g>
</svg>

<svg xmlns="http://www.w3.org/2000/svg" width="22" height="22"><defs><style id="current-color-scheme" type="text/css"></style></defs><path d="M10 3.004l-.5 1.031c.162-.013.335-.031.5-.031h.5l-.5-1zm0 2a5 5 0 0 0-5 5c0 2.254 1.513 4.126 3.563 4.75a3.715 3.715 0 0 1 1.968-1.438c.62-1.322 1.975-2.338 3.469-2.312.304-.005.587.056.875.125.085-.364.125-.735.125-1.125a5 5 0 0 0-5-5zm-4.938.062l.344 1.063c.22-.26.46-.5.719-.719l-1.063-.344zm9.875 0l-1.093.375h-.063c.14.111.275.226.406.344.132.119.258.242.376.375l.374-1.094zM4 9.504l-1 .5 1.031.5c-.015-.17-.031-.326-.031-.5 0-.028-.002-.084 0-.156.006-.116.022-.233.031-.344H4zm11.969 0c.015.17.031.326.031.5 0 .027.002.084 0 .156-.006.116-.022.232-.031.344H16l1-.5-1.031-.5zM14 12.004c-1.312 0-2.405.858-2.813 2.031a2.494 2.494 0 0 0 .313 4.969H17a2 2 0 1 0 0-4 3 3 0 0 0-3-3zm-8.563 1.844l-.375 1.093 1.094-.375h.063a8.605 8.605 0 0 1-.407-.343 4.596 4.596 0 0 1-.375-.375z" fill="currentColor" color="#d3dae3"/></svg>
